assets/img/braze_icons/globe-05.svg

<svg fill="none" height="24" viewBox="0 0 24 24" width="24" xmlns="http://www.w3.org/2000/svg"><path clip-rule="evenodd" d="m12 1c1.0396 0 2.047.14449 3.0024.415.6118-.26694 1.2874-.415 1.9976-.415 2.7614 0 5 2.23858 5 5 0 .39056-.0488.76545-.1365 1.12564.7278 1.47009 1.1365 3.12576 1.1365 4.87436 0 6.0751-4.9249 11-11 11-6.07513 0-11-4.9249-11-11 0-.4179.02331-.8304.06869-1.2362.00109-.0114.00238-.0227.00385-.034.62971-5.47681 5.28192-9.7298 10.92746-9.7298zm-8.71593 8.74793c.99982-3.88071 4.52304-6.74793 8.71593-6.74793.3252 0 .6461.01721.962.05073-.6049.8268-.962 1.84633-.962 2.94927 0 1.42161.6468 2.63566 1.4577 3.68859.6746.87591 1.5379 1.73151 2.3711 2.55721.1562.1548.3114.3086.4641.4613.3905.3905 1.0237.3905 1.4142 0 .1527-.1527.3079-.3065.4641-.4613.8332-.8257 1.6965-1.6813 2.3711-2.55721.0391-.05083.0779-.10204.1162-.15363.2224.78284.3415 1.60954.3415 2.46504 0 4.9706-4.0294 9-9 9-.1677 0-.3344-.0046-.4999-.0136v-1.1167l2.3655-2.7597c.6128-.715.4229-1.8113-.3947-2.2786l-2.7377-1.5644-1.79421-3.1442c-.2907-.50943-.85165-.80269-1.43588-.75065zm13.71593-5.24793c-.6904 0-1.25.55964-1.25 1.25s.5596 1.25 1.25 1.25 1.25-.55964 1.25-1.25-.5596-1.25-1.25-1.25z" fill="#801ed7" fill-rule="evenodd"/></svg>

<svg width="24" height="24" viewBox="0 0 24 24" fill="none" xmlns="http://www.w3.org/2000/svg">
<path fill-rule="evenodd" clip-rule="evenodd" d="M12 1C13.0396 1 14.047 1.14449 15.0024 1.415C15.6142 1.14806 16.2898 1 17 1C19.7614 1 22 3.23858 22 6C22 6.39056 21.9512 6.76545 21.8635 7.12564C22.5913 8.59573 23 10.2514 23 12C23 18.0751 18.0751 23 12 23C5.92487 23 1 18.0751 1 12C1 11.5821 1.02331 11.1696 1.06869 10.7638C1.06978 10.7524 1.07107 10.7411 1.07254 10.7298C1.70225 5.25299 6.35446 1 12 1ZM3.28407 9.74793C4.28389 5.86722 7.80711 3 12 3C12.3252 3 12.6461 3.01721 12.962 3.05073C12.3571 3.87753 12 4.89706 12 6C12 7.42161 12.6468 8.63566 13.4577 9.68859C14.1323 10.5645 14.9956 11.4201 15.8288 12.2458C15.985 12.4006 16.1402 12.5544 16.2929 12.7071C16.6834 13.0976 17.3166 13.0976 17.7071 12.7071C17.8598 12.5544 18.015 12.4006 18.1712 12.2458C19.0044 11.4201 19.8677 10.5645 20.5423 9.68859C20.5814 9.63776 20.6202 9.58655 20.6585 9.53496C20.8809 10.3178 21 11.1445 21 12C21 16.9706 16.9706 21 12 21C11.8323 21 11.6656 20.9954 11.5001 20.9864L11.5001 19.8697L13.8656 17.11C14.4784 16.395 14.2885 15.2987 13.4709 14.8314L10.7332 13.267L8.93899 10.1228C8.64829 9.61337 8.08734 9.32011 7.50311 9.37215L3.28407 9.74793ZM17 4.5C16.3096 4.5 15.75 5.05964 15.75 5.75C15.75 6.44036 16.3096 7 17 7C17.6904 7 18.25 6.44036 18.25 5.75C18.25 5.05964 17.6904 4.5 17 4.5Z" fill="#801ED7"/>
</svg>
